**kern	**kern	**dynam
*part1	*part1	*part1
*staff2	*staff1	*
*I"Piano	*	*
*clefF4	*clefG2	*
*k[b-e-a-d-]	*k[b-e-a-d-]	*
=1	=1	=1
*^	*^	*
8E-L	[2.AA-	(2.f	8GL 8B- 8d-	pp
8E-	.	.	8G 8B- 8d-	.
8E-	.	.	8G 8B- 8d-	>
8E-	.	.	8G 8B- 8d-	.
8E-	.	.	8G 8B- 8d-	.
8E-J	.	.	8GJ 8B- 8d-	.
=	=	=	=	=
8E-L	2.AA-]	[2e-)	8GL 8B- 8d-	.
8E-	.	.	8G 8B- 8d-	.
8E-	.	.	8G 8B- 8d-	]
8E-J	.	.	8GJ 8B- 8d-	.
8E-	.	8e-]	8G 8B- 8d-	.
8rBB	.	8r	8rgyy	.
=	=	=	=	=
8E-L	[2.AA-	([2.f	8A-L 8c	pp
8E-	.	.	8A- 8c	>
8E-	.	.	8A- 8c	.
8E-	.	.	8A- 8c	.
8E-	.	.	8A- 8c	.
8E-J	.	.	8A-J 8c	]
=	=	=	=	=
4E-	4AA-]	2f]	4A- 4c	.
*v	*v	*	*	*
4rGG	.	4rg	.
4rGG	4r	4rgyy	pp
=	=	=	=
*^	*	*	*
8E-L	[2.AA-	[2.e-	8A-L 8c	.
8E-	.	.	8A- 8c	>
8E-	.	.	8A- 8c	.
8E-	.	.	8A- 8c	.
8E-	.	.	8A- 8c	.
8E-J	.	.	8A-J 8c	.
=	=	=	=	=
4E-	4AA-]	2e-]	4A- 4c	] ppp
*v	*v	*	*	*
4rGG	.	4rg	.
4rGG	4r	4rgyy	.
=	=	=	=
4AA- 4E-	4A-) 4c	2.rcyy	.
4r	4r	.	.
4r	4r	.	.
*	*v	*v	*
==	==	==
*-	*-	*-
!!!system-decoration: {(s1,s2)}
